X: 1
T:Jackie Daly's
M:4/4
L:1/8
C:Jackie Daly
S:From Brendan Larrisey: A Flick of the Wrist
R:Reel
K:BMin
ag |: fedc BFFd | AFEF DEFA | Bcde f~B3 | ABde ~f2ed- |~d2cA BFFd |
!AFEF DEFA | Bcde fgfe |1 dcAF D3g :|2 dcAF D3A ||
!Bcdf- ~f2bf | gfeg fedf | ecBc ABcd | ecaf eece |
!Bcdf- ~f2bf | gfeg fedf | ecac bcaf | gece d3c |
!Bcdf- ~f2bf | gfeg fedf | ecBc ABcd | ecaf eece |
!Bcdf- ~f2bf | gfeg fedf | ecce bAaA | gfec Adeg ||
